P3
# Glide diagnostic
10 8
255
0 0 0 25 0 17 50 0 34 75 0 51 100 0 68 125 0 85 150 0 102 175 0 119 200 0 136 225 0 153 0 31 17 25 31 34 50 31 51 75 31 68 100 31 85 125 31 102 150 31 119 175 31 136 200 31 153 225 31 170 0 62 34 25 62 51 50 62 68 75 62 85 100 62 102 125 62 119 150 62 136 175 62 153 200 62 170 225 62 187 0 93 51 25 93 68 50 93 85 75 93 102 100 93 119 125 93 136 150 93 153 175 93 170 200 93 187 225 93 204 0 124 68 25 124 85 50 124 102 75 124 119 100 124 136 125 124 153 150 124 170 175 124 187 200 124 204 225 124 221 0 155 85 25 155 102 50 155 119 75 155 136 100 155 153 125 155 170 150 155 187 175 155 204 200 155 221 225 155 238 0 186 102 25 186 119 50 186 136 75 186 153 100 186 170 125 186 187 150 186 204 175 186 221 200 186 238 225 186 255 0 217 119 25 217 136 50 217 153 75 217 170 100 217 187 125 217 204 150 217 221 175 217 238 200 217 255 225 217 16
